X:2742
T:Castlebar Races
M:6/8
L:1/8
C:Traditional
S:Dervish's "Harmony Hill"
R:Double Jig
A:Eire
K:G
|:~g3 bge|~f3 afd|~g3 bge|edB GBd|g2a bge|f2g a2a|bag agf|efg edB:|


